X:1
T:Abode of Peace
T:Prince Frans Gustav Oskar (1827-1852)
T:Abode of Peace
T:Public Domain
T:Public Domain
C:Prince Frans Gustav Oskar (1827-1852)
Z:Public Domain
%%score ( 1 2 ) ( 3 4 )
L:1/8
M:6/8
K:E
V:1 treble 
V:2 treble 
V:3 bass 
V:4 bass 
V:1
 x6 |: B, | ([B,-G]3 [B,F]2) [B,E] | B,3- B,2 B, | [B,G]2 [B,G] [CA]2 [B,G] | [B,G]3 [A,F]2 C | %6
w: |1.~A-|of * peace,|my * Fa-|for- ev- er! My|wea- ry soul|
w: |~~~~I|ward * look|to * Thee,|and Sav- ior, To|Thine a- bode|
w: |2.~The|be * praised|that * time|ly fli- eth; God’s|prom- ise is|
w: |~~~~Who|God’s * Word|and * prom-|re- li- eth Shall|find at last|
w: |3.~Then,|my * heart|for- * ev-|my Sav- ior, And|let me nev-|
w: |~~~~In|in * pain,|in * sor-|and ev- er, Thou|on- ly giv-|
 [CA]3 [C^E]3 | [CF]2 [CE] (ED)[B,E] | ([EG]3 [DF]C)[B,D] | [B,E]3 z2 :| B, | %11
w: faith doth|yearn for thee. * *||||
w: peace, e-|ter- nal- ly. * There|on * * earth|no|peace-|
w: filled for-|ev- er- more. * *||||
w: choic- est|wine in store. * For-|ten * * then|is|all|
w: Lord, from|Thee de- part. * *||||
w: sol- ace|to my heart. * For|O * * Lord,|I|am|
 ([DF]3- [DF][B,E])[B,D] | (DC)B, ([B,E][EG])[Ec] | [EB]3- [EB]2 B, | ([DF]3- [DF][B,E])[B,D] | %15
w: ||||
w: rest; * * Our|faith * is weak, * our|pressed, * Our|sion * * dim|
w: ||||
w: tress, * * E-|ter- * nal peace * and|ness * Shall|be * * ours|
w: ||||
w: Thee, * * All|o- * ther com- * forts|flee; * With|I’m * * blest|
 (DC)B, (EG)[Ge] | [EB]3- [EB]2 B, | ([EG]3- [EG][DF])E | (ED)E [Ee]3 | ([ce][Bd][Ac]) (BA)[DF] | %20
w: |||||
w: and * fail- ing, * Our|and * fail-||||
w: |||||
w: for- * ev- er, * Shall|for- * ev-||||
w: |||||
w: for- * ev- er, * With|for- * ev-||||
 ([EG]3- Gc)[EB] | ([EG][CA])[B,D] [B,F]3 | [B,E]3- [B,E] z |] %23
w: |||
w: |||
w: |||
w: |||
w: |||
w: |||
V:2
 x6 |: B, | x6 | B,3- B,2 B, | x6 | x5 C | x6 | x3 B,2 x | x6 | x5 :| B, | x6 | B,2 B, x3 | x5 B, | %14
w: |bode||ther’s * home||in|||||||||
w: |home-||my * Lord||of||is|||ful||souls op-|vi-|
w: |Lord||so * swift-||ful-|||||||||
w: |on||is- * es||the||got-|||dis-||hap- pi-|then|
w: |keep||er, * O||er,|||||||||
w: |joy,||row, * now||est||when,|||with||well may|Thee|
 x6 | B,2 B, B,2 x | x5 B, | x5 E | B,2 E x3 | x3 F2 x | x3 E2 x | x6 | x5 |] %23
w: |||||||||
w: |vi- sion dim|ing.|||||||
w: |||||||||
w: |then be ours|er.|||||||
w: |||||||||
w: |Thee I’m blest|er.|||||||
V:3
 x6 |: [E,G,] | (E,3- [E,A,]2) [E,G,] | [E,G,]3- [E,G,]2 [E,G,] | E,2 =E, [C,^E,]2 [C,E,] | %5
 F,3 F,2 [F,A,] | [F,,A,]3 [G,,B,]3 | [A,,A,]2 [^A,,=G,] (^G,F,)[B,,G,] | %8
 [B,,-B,]3 [B,,A,]2 [B,,A,] | [E,G,]3 z2 :| [E,G,] | ([B,,A,]3- A,G,)[B,,F,] | %12
 [F,A,]2 [F,A,] (G,B,)[A,,A,] | [E,G,]3- [E,G,]2 [E,G,] | ([B,,A,]3- A,G,)[B,,F,] | %15
 [F,A,]2 [F,A,] [E,G,]2 [E,B,] | [E,G,]3- [E,G,]2 [E,G,] | ([E,B,]3- [E,B,][F,A,])[G,B,] | %18
 [F,A,]2 [G,B,] [A,C]3 | A,3 [D,B,]2 B, | ([E,B,]3- B,A,)[E,G,] | ([E,B,][F,A,])[B,,A,] (B,,C,D,) | %22
 [E,G,]3- [E,G,] z |] %23
V:4
 x6 |: x | E,3 x3 | x6 | ^E,2 ^E, x3 | F,3 F,2 x | x6 | x3 B,,2 x | x6 | x5 :| x | x3 B,,2 x | %12
 x3 E,2 x | x6 | x3 B,,2 x | x6 | x6 | x6 | x6 | A,3 B, x2 | x3 E,2 x | x3 A,3 | x5 |] %23

